src/ios-briefcase-outline.svg

<?xml version="1.0" encoding="utf-8"?>
<!-- Generated by IcoMoon.io -->
<!DOCTYPE svg PUBLIC "-//W3C//DTD SVG 1.1//EN" "http://www.w3.org/Graphics/SVG/1.1/DTD/svg11.dtd">
<svg version="1.1" xmlns="http://www.w3.org/2000/svg" xmlns:xlink="http://www.w3.org/1999/xlink" width="512" height="512" viewBox="0 0 512 512">
<path fill="#000000" d="M416 128v-16h-32v16h-48v-32c-0.5-18.2-13.6-32-32.2-32h-99.1c-18.6 0-28.7 13.7-28.7 32v32h-48v-16h-32v16h-48v320h416v-320h-48zM192 127.5v-29.4c0-10.2 2.9-18.1 13.7-18.1h97.1c10.4 0 17.2 7.7 17.2 18.1v29.9h-128v-0.5zM448 432h-384v-224h384v224zM448 192h-384v-48h32v16h32v-16h256v16h32v-16h32v48z"></path>
</svg>

<?xml version="1.0" encoding="utf-8"?>
<!-- Generator: Adobe Illustrator 16.2.1, SVG Export Plug-In . SVG Version: 6.00 Build 0)  -->
<!DOCTYPE svg PUBLIC "-//W3C//DTD SVG 1.1//EN" "http://www.w3.org/Graphics/SVG/1.1/DTD/svg11.dtd">
<svg version="1.1" id="Layer_1" xmlns="http://www.w3.org/2000/svg" xmlns:xlink="http://www.w3.org/1999/xlink" x="0px" y="0px"
	 width="512px" height="512px" viewBox="0 0 512 512" style="enable-background:new 0 0 512 512;" xml:space="preserve">
<g>
	<path d="M416,128v-16h-32v16h-48V98.1V96c-0.5-18.2-13.6-32-32.2-32h-99.1C186.1,64,176,77.7,176,96v2.1V128h-48v-16H96v16H48v320
		h416V128H416z M192,127.5V98.1c0-10.2,2.9-18.1,13.7-18.1h97.1c10.4,0,17.2,7.7,17.2,18.1v29.4v0.5H192V127.5z M448,432H64V208h384
		V432z M448,192H64v-48h32v16h32v-16h256v16h32v-16h32V192z"/>
</g>
</svg>
